X:153
T: ICH LEBTE SONST SO FROH UND FREI
N: E0736
O: Europa, Mitteleuropa, Deutschland, Gransee, Roennebeck
R: Liebes - Lied, Leid, Klage, Tod
M: 4/4
L: 1/8
K: G
D2 | G2G2A2A2 | B2B2A2z2 |
c2A2B3G | A3GF2
GF | E2E2G2E2 | D2D2B2
A2 | BGF2GFE2 | E4D2
GF | E2E2G2E2 | D2D2B2
A2 | BGF2GFE2 | E4D2

@@@ Tune index: 4466
